TuxGuitar/src-skins/Symbolic/TuxGuitar/layout_tablature.svg

<?xml version="1.0" encoding="UTF-8" standalone="no"?>
<svg
   height="16px"
   viewBox="0 0 16 16"
   width="16px"
   version="1.1"
   id="svg4"
   sodipodi:docname="layout_tablature.svg"
   inkscape:version="1.2.2 (b0a8486541, 2022-12-01)"
   xmlns:inkscape="http://www.inkscape.org/namespaces/inkscape"
   xmlns:sodipodi="http://sodipodi.sourceforge.net/DTD/sodipodi-0.dtd"
   xmlns="http://www.w3.org/2000/svg"
   xmlns:svg="http://www.w3.org/2000/svg">
  <defs
     id="defs8" />
  <sodipodi:namedview
     id="namedview6"
     pagecolor="#ffffff"
     bordercolor="#666666"
     borderopacity="1.0"
     inkscape:showpageshadow="2"
     inkscape:pageopacity="0.0"
     inkscape:pagecheckerboard="0"
     inkscape:deskcolor="#d1d1d1"
     showgrid="true"
     inkscape:zoom="32.836271"
     inkscape:cx="4.1569885"
     inkscape:cy="5.8471926"
     inkscape:window-width="1920"
     inkscape:window-height="1021"
     inkscape:window-x="0"
     inkscape:window-y="0"
     inkscape:window-maximized="1"
     inkscape:current-layer="svg4">
    <inkscape:grid
       type="xygrid"
       id="grid284" />
  </sodipodi:namedview>
  <path
     id="path2"
     fill="#2e3436"
     d="M 4 0 C 2.3554738 0 1 1.3554738 1 3 L 1 13 C 1 14.644525 2.3554738 16 4 16 L 6 16 L 7 16 L 12 16 C 13.644525 16 15 14.644525 15 13 L 15 6 L 15 5 C 15 4.7343759 14.894531 4.4804682 14.707031 4.2929688 L 10.707031 0.29296875 C 10.519531 0.10546932 10.265625 0 10 0 L 4 0 z M 4 2 L 9.5859375 2 L 13 5.4140625 L 13 6 L 13 13 C 13 13.570309 12.570309 14 12 14 L 7 14 L 6 14 L 4 14 C 3.4296898 14 3 13.570309 3 13 L 3 3 C 3 2.4296898 3.4296898 2 4 2 z M 5.3554688 3 L 5.2597656 5 L 4.6660156 5 C 4.296224 5 4 5.1113281 4 5.25 L 4 5.75 C 4 5.8886719 4.296224 6 4.6660156 6 L 7.5273438 6 C 7.5923574 6.1334967 7.6269531 6.2865932 7.6269531 6.4589844 C 7.6269531 7.098188 7.1599777 7.4824219 6.4355469 7.4824219 C 6.0094111 7.4824219 5.5392396 7.3609727 5.1699219 7.1621094 L 5 7.6308594 C 5.4403403 7.8652341 5.9012791 8 6.3984375 8 C 7.492186 8 8.2324219 7.3741109 8.2324219 6.4082031 C 8.2324219 6.2614027 8.2086221 6.1285936 8.1757812 6 L 11.333984 6 C 11.703776 6 12 5.8886719 12 5.75 L 12 5.25 C 12 5.1113281 11.703776 5 11.333984 5 L 7.1582031 5 C 6.9496006 4.9389494 6.7151412 4.9042969 6.4550781 4.9042969 C 6.2420102 4.9042969 6.0223719 4.9241833 5.8164062 4.9667969 L 5.8886719 3.5039062 L 7.9980469 3.5039062 L 7.9980469 3 L 5.3554688 3 z M 10.767578 8 L 9 8.9160156 L 9.2148438 9.3242188 L 10.544922 8.6875 L 10.544922 10 L 4.6660156 10 C 4.296224 10 4 10.111328 4 10.25 L 4 10.75 C 4 10.888672 4.296224 11 4.6660156 11 L 10.544922 11 L 10.544922 13 L 11.109375 13 L 11.109375 11 L 11.333984 11 C 11.703776 11 12 10.888672 12 10.75 L 12 10.25 C 12 10.111328 11.703776 10 11.333984 10 L 11.109375 10 L 11.109375 8 L 10.767578 8 z " />
</svg>

<?xml version="1.0" encoding="UTF-8"?>
<svg id="svg4" width="16px" height="16px" version="1.1" viewBox="0 0 16 16" xmlns="http://www.w3.org/2000/svg">
 <path id="path2" d="m4 0c-1.6445 0-3 1.3555-3 3v10c0 1.6445 1.3555 3 3 3h2 1 5c1.6445 0 3-1.3555 3-3v-7-1c0-0.26562-0.10547-0.51953-0.29297-0.70703l-4-4c-0.1875-0.1875-0.44141-0.29297-0.70703-0.29297h-6zm0 2h5.5859l3.4141 3.4141v0.58594 7c0 0.57031-0.42969 1-1 1h-5-1-2c-0.57031 0-1-0.42969-1-1v-10c0-0.57031 0.42969-1 1-1zm1.3555 1-0.095703 2h-0.59375c-0.36979 0-0.66602 0.11133-0.66602 0.25v0.5c0 0.13867 0.29622 0.25 0.66602 0.25h2.8613c0.065014 0.1335 0.099609 0.28659 0.099609 0.45898 0 0.6392-0.46698 1.0234-1.1914 1.0234-0.42614 0-0.89631-0.12145-1.2656-0.32031l-0.16992 0.46875c0.44034 0.23437 0.90128 0.36914 1.3984 0.36914 1.0937 0 1.834-0.62589 1.834-1.5918 0-0.1468-0.0238-0.27961-0.056641-0.4082h3.1582c0.36979 0 0.66602-0.11133 0.66602-0.25v-0.5c0-0.13867-0.29622-0.25-0.66602-0.25h-4.1758c-0.2086-0.061051-0.44306-0.095703-0.70312-0.095703-0.21307 0-0.43271 0.019886-0.63867 0.0625l0.072266-1.4629h2.1094v-0.50391h-2.6426zm5.4121 5-1.7676 0.91602 0.21484 0.4082 1.3301-0.63672v1.3125h-5.8789c-0.36979 0-0.66602 0.11133-0.66602 0.25v0.5c0 0.13867 0.29622 0.25 0.66602 0.25h5.8789v2h0.56445v-2h0.22461c0.36979 0 0.66602-0.11133 0.66602-0.25v-0.5c0-0.13867-0.29622-0.25-0.66602-0.25h-0.22461v-2h-0.3418z" fill="#2e3436"/>
</svg>
